src/icons/github-20.svg

<svg xmlns="http://www.w3.org/2000/svg"  viewBox="0 0 32 32" width="20px" height="20px"><path fill-rule="evenodd" d="M 16 4 C 9.371094 4 4 9.371094 4 16 C 4 21.300781 7.4375 25.800781 12.207031 27.386719 C 12.808594 27.496094 13.027344 27.128906 13.027344 26.808594 C 13.027344 26.523438 13.015625 25.769531 13.011719 24.769531 C 9.671875 25.492188 8.96875 23.160156 8.96875 23.160156 C 8.421875 21.773438 7.636719 21.402344 7.636719 21.402344 C 6.546875 20.660156 7.71875 20.675781 7.71875 20.675781 C 8.921875 20.761719 9.554688 21.910156 9.554688 21.910156 C 10.625 23.746094 12.363281 23.214844 13.046875 22.910156 C 13.15625 22.132813 13.46875 21.605469 13.808594 21.304688 C 11.144531 21.003906 8.34375 19.972656 8.34375 15.375 C 8.34375 14.0625 8.8125 12.992188 9.578125 12.152344 C 9.457031 11.851563 9.042969 10.628906 9.695313 8.976563 C 9.695313 8.976563 10.703125 8.65625 12.996094 10.207031 C 13.953125 9.941406 14.980469 9.808594 16 9.804688 C 17.019531 9.808594 18.046875 9.941406 19.003906 10.207031 C 21.296875 8.65625 22.300781 8.976563 22.300781 8.976563 C 22.957031 10.628906 22.546875 11.851563 22.421875 12.152344 C 23.191406 12.992188 23.652344 14.0625 23.652344 15.375 C 23.652344 19.984375 20.847656 20.996094 18.175781 21.296875 C 18.605469 21.664063 18.988281 22.398438 18.988281 23.515625 C 18.988281 25.121094 18.976563 26.414063 18.976563 26.808594 C 18.976563 27.128906 19.191406 27.503906 19.800781 27.386719 C 24.566406 25.796875 28 21.300781 28 16 C 28 9.371094 22.628906 4 16 4 Z"/></svg>

<svg xmlns="http://www.w3.org/2000/svg" xmlns:xlink="http://www.w3.org/1999/xlink" viewBox="0,0,256,256" width="20px" height="20px"><g transform=""><g fill="#333333" fill-rule="evenodd" stroke="none" stroke-width="1" stroke-linecap="butt" stroke-linejoin="miter" stroke-miterlimit="10" stroke-dasharray="" stroke-dashoffset="0" font-family="none" font-weight="none" font-size="none" text-anchor="none" style="mix-blend-mode: normal"><g transform="scale(8,8)"><path d="M16,4c-6.62891,0 -12,5.37109 -12,12c0,5.30078 3.4375,9.80078 8.20703,11.38672c0.60156,0.10938 0.82031,-0.25781 0.82031,-0.57812c0,-0.28516 -0.01172,-1.03906 -0.01562,-2.03906c-3.33984,0.72266 -4.04297,-1.60937 -4.04297,-1.60937c-0.54687,-1.38672 -1.33203,-1.75781 -1.33203,-1.75781c-1.08984,-0.74219 0.08203,-0.72656 0.08203,-0.72656c1.20313,0.08594 1.83594,1.23438 1.83594,1.23438c1.07031,1.83594 2.80859,1.30469 3.49219,1c0.10938,-0.77734 0.42188,-1.30469 0.76172,-1.60547c-2.66406,-0.30078 -5.46484,-1.33203 -5.46484,-5.92969c0,-1.3125 0.46875,-2.38281 1.23438,-3.22266c-0.12109,-0.30078 -0.53516,-1.52344 0.11719,-3.17578c0,0 1.00781,-0.32031 3.30078,1.23047c0.95703,-0.26562 1.98438,-0.39844 3.00391,-0.40234c1.01953,0.00391 2.04688,0.13672 3.00391,0.40234c2.29297,-1.55078 3.29688,-1.23047 3.29688,-1.23047c0.65625,1.65234 0.24609,2.875 0.12109,3.17578c0.76953,0.83984 1.23047,1.91016 1.23047,3.22266c0,4.60938 -2.80469,5.62109 -5.47656,5.92188c0.42969,0.36719 0.8125,1.10156 0.8125,2.21875c0,1.60547 -0.01172,2.89844 -0.01172,3.29297c0,0.32031 0.21484,0.69531 0.82422,0.57813c4.76563,-1.58984 8.19922,-6.08594 8.19922,-11.38672c0,-6.62891 -5.37109,-12 -12,-12z"></path></g></g></g></svg>
